app/img/sprite/home.svg

<svg width="18" height="21" viewBox="0 0 18 21" fill="none" xmlns="http://www.w3.org/2000/svg">
<path d="M17 7.00001L11 1.74001C10.45 1.24805 9.7379 0.976074 8.99997 0.976074C8.26204 0.976074 7.54999 1.24805 6.99997 1.74001L0.999973 7.00001C0.682341 7.28408 0.428873 7.63256 0.256445 8.02225C0.0840165 8.41194 -0.00341463 8.83389 -2.72762e-05 9.26001V18C-2.72762e-05 18.7957 0.316043 19.5587 0.878652 20.1213C1.44126 20.6839 2.20432 21 2.99997 21H15C15.7956 21 16.5587 20.6839 17.1213 20.1213C17.6839 19.5587 18 18.7957 18 18V9.25001C18.0019 8.82557 17.9138 8.40555 17.7414 8.01769C17.5691 7.62983 17.3163 7.28296 17 7.00001ZM11 19H6.99997V14C6.99997 13.7348 7.10533 13.4804 7.29287 13.2929C7.4804 13.1054 7.73476 13 7.99997 13H9.99997C10.2652 13 10.5195 13.1054 10.7071 13.2929C10.8946 13.4804 11 13.7348 11 14V19ZM16 18C16 18.2652 15.8946 18.5196 15.7071 18.7071C15.5195 18.8946 15.2652 19 15 19H13V14C13 13.2044 12.6839 12.4413 12.1213 11.8787C11.5587 11.3161 10.7956 11 9.99997 11H7.99997C7.20432 11 6.44126 11.3161 5.87865 11.8787C5.31604 12.4413 4.99997 13.2044 4.99997 14V19H2.99997C2.73476 19 2.4804 18.8946 2.29287 18.7071C2.10533 18.5196 1.99997 18.2652 1.99997 18V9.25001C2.00015 9.10802 2.03057 8.9677 2.08919 8.83839C2.14781 8.70907 2.2333 8.59372 2.33997 8.50001L8.33997 3.25001C8.52246 3.08969 8.75706 3.00127 8.99997 3.00127C9.24288 3.00127 9.47748 3.08969 9.65997 3.25001L15.66 8.50001C15.7666 8.59372 15.8521 8.70907 15.9108 8.83839C15.9694 8.9677 15.9998 9.10802 16 9.25001V18Z" fill="#BDBDBD"/>
</svg>

<svg width="18" height="21" fill="none" xmlns="http://www.w3.org/2000/svg"><path d="M17 7l-6-5.3a3 3 0 00-4 0L1 7a3 3 0 00-1 2.3V18a3 3 0 003 3h12a3 3 0 003-3V9.3A3 3 0 0017 7zm-6 12H7v-5a1 1 0 011-1h2a1 1 0 011 1v5zm5-1a1 1 0 01-1 1h-2v-5a3 3 0 00-3-3H8a3 3 0 00-3 3v5H3a1 1 0 01-1-1V9.3a1 1 0 01.3-.8l6-5.2a1 1 0 011.4 0l6 5.2a1 1 0 01.3.8V18z" fill="#BDBDBD"/></svg>
